X: 17
T:D-Dur-Schleuniger #8
M:3/4
L:1/8
C:trad
R:Schleuniger
S:j.m. schmalnauer: "tanz musik", bhlau, wien 1996 (compa bd. 5) 
K:D
aA|:(ba)(^gA)aA|faAa=g2 |egAgfA |1defgaA:|2d4   ||
df|egAga2 |faAag2 |egAgfA|defgaA|ba^gAaA|faAa=g2 |egAgfA|d4  ||
